material/.icons/material/file-lock-outline.svg

<svg xmlns="http://www.w3.org/2000/svg" viewBox="0 0 24 24"><path d="M14 2H6a2 2 0 00-2 2v16c0 1.11.89 2 2 2h12c1.11 0 2-.89 2-2V8l-6-6m4 18H6V4h7v5h5v11m-3-5v-1c0-1.66-1.34-3-3-3s-3 1.36-3 3v1H8v4h8v-4h-1m-2 0h-2v-1c0-.55.45-1 1-1s1 .47 1 1v1z"/></svg>

<?xml version="1.0" encoding="UTF-8"?><!DOCTYPE svg PUBLIC "-//W3C//DTD SVG 1.1//EN" "http://www.w3.org/Graphics/SVG/1.1/DTD/svg11.dtd"><svg xmlns="http://www.w3.org/2000/svg" xmlns:xlink="http://www.w3.org/1999/xlink" version="1.1" id="mdi-file-lock-outline" width="24" height="24" viewBox="0 0 24 24"><path d="M14 2H6C4.89 2 4 2.9 4 4V20C4 21.11 4.89 22 6 22H18C19.11 22 20 21.11 20 20V8L14 2M18 20H6V4H13V9H18V20M15 15V14C15 12.34 13.66 11 12 11S9 12.36 9 14V15H8V19H16V15H15M13 15H11V14C11 13.45 11.45 13 12 13S13 13.47 13 14V15Z" /></svg>
